dist/img/svg/icon-bg.svg

<svg width="114" height="71" viewBox="0 0 114 71" fill="none" xmlns="http://www.w3.org/2000/svg">
<g opacity="0.07">
<path d="M45.586 51.5631H61.0663V35.4722H45.586V51.5631Z" fill="#F6842D"/>
<path d="M22.7893 11.776H38.2697V0.00800296H22.7893V11.776Z" fill="#F6842D"/>
<path d="M34.1878 23.6241H49.6682V7.53325H34.1878V23.6241ZM0 23.6241H11.3985V11.7761H0V23.6241ZM22.7893 35.4561H34.1878V23.6081H22.7893V35.4561Z" fill="#F6842D"/>
<path d="M45.586 63.3791H61.0663V47.2883H45.586V63.3791Z" fill="#F6842D"/>
<path d="M41.5118 70.9997H61.0586V59.1517H41.5118V70.9997Z" fill="#F6842D"/>
<path d="M11.3983 70.9997H22.7968V59.1517H11.3983V70.9997Z" fill="#F6842D"/>
<path d="M45.586 16.0188H61.0663V0.00800296H45.586V16.0188Z" fill="#F6842D"/>
<path d="M22.7893 59.1437H34.1878V47.2957H22.7893V59.1437Z" fill="#F6842D"/>
<path d="M56.9151 27.8669H72.3955V11.7761H56.9151V27.8669Z" fill="#F6842D"/>
<path d="M56.9151 39.6904H72.3955V23.5995H56.9151V39.6904Z" fill="#F6842D"/>
<path d="M56.9151 51.5631H72.3955V35.4722H56.9151V51.5631Z" fill="#F6842D"/>
<path d="M56.9151 63.3791H72.3955V47.2883H56.9151V63.3791Z" fill="#F6842D"/>
<path d="M56.9922 0.00800579V11.776H68.3136V59.152H56.9151V71H87.4677C92.0579 71 96.032 70.4556 99.3745 69.3589C102.717 68.2782 105.459 66.3729 107.615 63.651C109.772 60.9292 111.389 57.2467 112.437 52.6036C113.484 47.9764 114 42.0925 114 34.9356C114 27.7147 113.515 21.8548 112.537 17.3717C111.551 12.8087 110.011 9.26226 107.916 6.74056C105.839 4.12646 103.014 2.26976 99.852 1.44097C96.5788 0.480325 92.6124 0 87.9683 0L56.9922 0.00800579ZM80.1973 9.71857H87.5678C90.1094 9.71857 92.3121 10.0228 94.1451 10.6312C96.06 11.1914 97.6848 12.5149 98.6659 14.3137C99.852 16.1549 100.699 18.7407 101.223 22.0789C101.816 25.4172 102.109 29.8442 102.109 35.3679C102.109 40.8756 101.801 45.3346 101.215 48.7369C100.699 52.0752 99.852 54.693 98.6737 56.5983C97.585 58.3576 95.9567 59.6834 94.0526 60.3608C92.2042 60.9772 90.0478 61.2814 87.5601 61.2814H80.1973V9.71857Z" fill="#F6842D"/>
<path d="M45.586 23.6241H56.9844V11.7761H45.586V23.6241Z" fill="#F6842D"/>
<path d="M34.1876 70.9997H45.5861V59.1517H34.1876V70.9997Z" fill="#F6842D"/>
<path d="M34.1876 11.776L45.586 11.7761V0.00800296H34.1876V11.776Z" fill="#F6842D"/>
</g>
</svg>

<svg width="114" height="71" fill="none" xmlns="http://www.w3.org/2000/svg"><g opacity=".07" fill="#F6842D"><path d="M45.586 51.563h15.48v-16.09h-15.48v16.09zM22.79 11.776h15.48V.008H22.79v11.768z"/><path d="M34.188 23.624h15.48V7.534h-15.48v16.09zM0 23.624h11.399V11.776H0v11.848zm22.79 11.832h11.398V23.608H22.789v11.848zM45.586 63.38h15.48V47.287h-15.48V63.38z"/><path d="M41.512 71h19.547V59.152H41.512V71zm-30.114 0h11.399V59.152H11.398V71zm34.188-54.981h15.48V.008h-15.48v16.01zM22.79 59.144h11.398V47.296H22.789v11.848z"/><path d="M56.915 27.867h15.48v-16.09h-15.48v16.09z"/><path d="M56.915 39.69h15.48V23.6h-15.48v16.09z"/><path d="M56.915 51.563h15.48v-16.09h-15.48v16.09z"/><path d="M56.915 63.38h15.48V47.287h-15.48V63.38z"/><path d="M56.992.008v11.768h11.322v47.376H56.915V71h30.553c4.59 0 8.564-.544 11.906-1.641 3.343-1.08 6.085-2.986 8.241-5.708 2.157-2.722 3.774-6.404 4.822-11.047C113.484 47.976 114 42.093 114 34.936c0-7.221-.485-13.081-1.463-17.564-.986-4.563-2.526-8.11-4.621-10.631-2.077-2.615-4.902-4.471-8.064-5.3C96.579.481 92.612 0 87.968 0L56.992.008zm23.205 9.71h7.37c2.542 0 4.745.305 6.578.913 1.915.56 3.54 1.884 4.52 3.683 1.187 1.84 2.034 4.427 2.558 7.765.593 3.338.886 7.765.886 13.289 0 5.508-.308 9.967-.894 13.369-.516 3.338-1.363 5.956-2.541 7.861a8.997 8.997 0 01-4.621 3.763c-1.849.616-4.005.92-6.493.92h-7.363V9.72z"/><path d="M45.586 23.624h11.398V11.776H45.586v11.848zM34.188 71h11.398V59.152H34.188V71zm0-59.224h11.398V.008H34.188v11.768z"/></g></svg>
